RestoDelMundo/Belgica/Otras Categorias/K Vrijheid Zolder.svg

<svg enable-background="new 0 0 612 792" viewBox="0 0 612 792" xmlns="http://www.w3.org/2000/svg"><path d="m153.988 153.997-38.68-31.539-38.681 31.539-50.749-41.378v125.705h178.859v-125.705z" fill="#06ab71"/><path d="m153.986 189.513-38.679-31.539-38.683 31.539-23.219-18.934v40.217h123.803v-40.217z" fill="#f4eb3b"/><path d="m348.713 254.84-143.976 173.804v-173.804h-178.859v423.779h208.52l351.052-423.779z" fill="#06ab71"/><path d="m53.404 651.091h168.052l305.446-368.724h-165.248l-184.444 222.656v-222.656h-123.806z" fill="#f4eb3b"/></svg>

<svg xmlns="http://www.w3.org/2000/svg" viewBox="0 0 612 792"><path fill="#06ab71" d="m153.988 153.997-38.68-31.539-38.681 31.539-50.749-41.378v125.705h178.859V112.619z"/><path fill="#f4eb3b" d="m153.986 189.513-38.679-31.539-38.683 31.539-23.219-18.934v40.217h123.803v-40.217z"/><path fill="#06ab71" d="M348.713 254.84 204.737 428.644V254.84H25.878v423.779h208.52L585.45 254.84z"/><path fill="#f4eb3b" d="M53.404 651.091h168.052l305.446-368.724H361.654L177.21 505.023V282.367H53.404z"/></svg>
